exported-svg/github.svg

<svg height="24" viewBox="0 0 24 24" width="24" xmlns="http://www.w3.org/2000/svg"><path d="m10.0001183 19.5419912v2.9883784c0 .2761423-.22385765.5-.50000002.5-.27614238 0-.5-.2238577-.5-.5l.00075435-2.3479393c-2.3751063.5608784-3.73214494-.0615517-5.05211704-1.6959319-.07914014-.0979908-.37763991-.4769237-.44955696-.5657926-.45401627-.5610344-.75631166-.8142559-1.12034817-.905265-.26789745-.0669744-.4307778-.3384416-.36380343-.6063391.06697436-.2678974.33844161-.4307778.60633906-.3638034.63134065.1578352 1.07512031.5295727 1.65516204 1.2463385.07732713.0955543.37623139.4750007.45017289.5665545 1.13394563 1.4040436 2.15710906 1.8554992 4.27448265 1.2938615l.0001467-.4566037c-.05573274-.792418.1339584-1.574958.53208099-2.2460875-3.92875923-.7032895-6.0333896-2.7714255-6.03338313-7.36636137-.00754033-1.43313547.50310891-2.81701913 1.43188496-3.89944895-.39323919-1.26282808-.32507284-2.62831747.19861892-3.85015618.05855937-.13662639.17487329-.24011357.31738369-.2823836.0342824-.01016851.08062081-.02036625.13908471-.02885269.84044848-.1219968 2.1600655.24596038 4.00249085 1.44787896 2.23830224-.56740255 4.58291164-.56740255 6.82121384 0 1.8424253-1.20191858 3.1620424-1.56987576 4.0024908-1.44787896.0584639.00848644.1048024.01868418.1390848.02885269.1425104.04227003.2588243.14575721.3173836.2823836.5236927 1.22184088.5918584 2.58733297.1986169 3.85016293.9214635 1.07395262 1.4315556 2.44491451 1.431817 3.86681152 0 4.62945165-2.1185205 6.71719265-6.0268663 7.37762445.4006951.6765406.5887024 1.4605187.5268663 2.2323756v3.87c0 .2761423-.2238576.5-.5.5s-.5-.2238577-.5-.5l.00154-3.9092128c.0646245-.8214866-.2269675-1.6311197-.8005341-2.2227596-.2892623-.2983771-.1094113-.7989134.3036046-.8449502 3.9976227-.4455949 5.9953895-2.1254418 5.9953895-6.50298554-.0002331-1.26784826-.487923-2.48707314-1.3621324-3.40533088-.1319366-.13858446-.1732116-.34031337-.1063095-.51958144.3768444-1.00977762.3836402-2.11710294.025043-3.12695734-.6406465.00637974-1.7167669.38042538-3.2781987 1.42709942-.1202316.0805948-.2694894.10513171-.4091947.06726863-2.206341-.59796532-4.5320745-.59796532-6.7384155 0-.1397052.03786308-.28896307.01332617-.40919466-.06726863-1.56143176-1.04667404-2.63755224-1.42071968-3.27819867-1.42709942-.35859726 1.0098544-.35180145 2.11717972.02504302 3.12695734.06690333.17927153.02562538.38100442-.10631663.51958885-.88071749.92505589-1.36892957 2.15530386-1.36220225 3.43523156 0 4.33837485 1.98145864 6.00448255 6.00170529 6.50381255.4093225.0508395.5845117.5474963.2976737.8438972-.5666593.5855511-.857703 1.3843733-.799302 2.2322903v.8587667c.000176.007638.000175.015258 0 .0228549z"/></svg>

<?xml version="1.0" encoding="UTF-8"?>
<svg width="24px" height="24px" viewBox="0 0 24 24" version="1.1" xmlns="http://www.w3.org/2000/svg" xmlns:xlink="http://www.w3.org/1999/xlink">
    <!-- Generator: Sketch 55.2 (78181) - https://sketchapp.com -->
    <title>github</title>
    <desc>Created with Sketch.</desc>
    <g id="github" stroke="none" stroke-width="1" fill="none" fill-rule="evenodd">
        <path d="M10.0001183,19.5419912 L10.0001183,22.5303696 C10.0001183,22.8065119 9.77626065,23.0303696 9.50011828,23.0303696 C9.2239759,23.0303696 9.00011828,22.8065119 9.00011828,22.5303696 L9.00087263,20.1824303 C6.62576633,20.7433087 5.26872769,20.1208786 3.94875559,18.4864984 C3.86961545,18.3885076 3.57111568,18.0095747 3.49919863,17.9207058 C3.04518236,17.3596714 2.74288697,17.1064499 2.37885046,17.0154408 C2.11095301,16.9484664 1.94807266,16.6769992 2.01504703,16.4091017 C2.08202139,16.1412043 2.35348864,15.9783239 2.62138609,16.0452983 C3.25272674,16.2031335 3.6965064,16.574871 4.27654813,17.2916368 C4.35387526,17.3871911 4.65277952,17.7666375 4.72672102,17.8581913 C5.86066665,19.2622349 6.88383008,19.7136905 9.00120367,19.1520528 L9.00135037,18.6954491 C8.94561763,17.9030311 9.13530877,17.1204911 9.53343136,16.4493616 C5.60467213,15.7460721 3.50004176,13.6779361 3.50004823,9.08300023 C3.4925079,7.64986476 4.00315714,6.2659811 4.93193319,5.18355128 C4.538694,3.9207232 4.60686035,2.55523381 5.13055211,1.3333951 C5.18911148,1.19676871 5.3054254,1.09328153 5.4479358,1.0510115 C5.4822182,1.04084299 5.52855661,1.03064525 5.58702051,1.02215881 C6.42746899,0.900162006 7.74708601,1.26811919 9.58951136,2.47003777 C11.8278136,1.90263522 14.172423,1.90263522 16.4107252,2.47003777 C18.2531505,1.26811919 19.5727676,0.900162006 20.413216,1.02215881 C20.4716799,1.03064525 20.5180184,1.04084299 20.5523008,1.0510115 C20.6948112,1.09328153 20.8111251,1.19676871 20.8696844,1.3333951 C21.3933771,2.55523598 21.4615428,3.92072807 21.0683013,5.18355803 C21.9897648,6.25751065 22.4998569,7.62847254 22.5001183,9.05036955 C22.5001183,13.6798212 20.3815978,15.7675622 16.473252,16.427994 C16.8739471,17.1045346 17.0619544,17.8885127 17.0001183,18.6603696 L17.0001183,22.5303696 C17.0001183,22.8065119 16.7762607,23.0303696 16.5001183,23.0303696 C16.2239759,23.0303696 16.0001183,22.8065119 16.0001183,22.5303696 L16.0016583,18.6211568 C16.0662828,17.7996702 15.7746908,16.9900371 15.2011242,16.3983972 C14.9118619,16.1000201 15.0917129,15.5994838 15.5047288,15.553447 C19.5023515,15.1078521 21.5001183,13.4280052 21.5001183,9.05046146 C21.4998852,7.7826132 21.0121953,6.56338832 20.1379859,5.64513058 C20.0060493,5.50654612 19.9647743,5.30481721 20.0316764,5.12554914 C20.4085208,4.11577152 20.4153166,3.0084462 20.0567194,1.9985918 C19.4160729,2.00497154 18.3399525,2.37901718 16.7785207,3.42569122 C16.6582891,3.50628602 16.5090313,3.53082293 16.369326,3.49295985 C14.162985,2.89499453 11.8372515,2.89499453 9.6309105,3.49295985 C9.4912053,3.53082293 9.34194743,3.50628602 9.22171584,3.42569122 C7.66028408,2.37901718 6.5841636,2.00497154 5.94351717,1.9985918 C5.58491991,3.0084462 5.59171572,4.11577152 5.96856019,5.12554914 C6.03546352,5.30482067 5.99418557,5.50655356 5.86224356,5.64513799 C4.98152607,6.57019388 4.49331399,7.80044185 4.50004131,9.08036955 C4.50004131,13.4187444 6.48149995,15.0848521 10.5017466,15.5841821 C10.9110691,15.6350216 11.0862583,16.1316784 10.7994203,16.4280793 C10.232761,17.0136304 9.9417173,17.8124526 10.0001183,18.6603696 L10.0001183,19.5191363 C10.0002943,19.5267743 10.0002933,19.5343943 10.0001183,19.5419912 Z" id="Shape" fill="#000000" fill-rule="nonzero"></path>
    </g>
</svg>
